src/assets/icons/Git.svg

<!DOCTYPE svg PUBLIC "-//W3C//DTD SVG 1.1//EN" "http://www.w3.org/Graphics/SVG/1.1/DTD/svg11.dtd">
<!-- Uploaded to: SVG Repo, www.svgrepo.com, Transformed by: SVG Repo Mixer Tools -->
<svg width="800px" height="800px" viewBox="0 0 24 24" fill="none" xmlns="http://www.w3.org/2000/svg">
<g id="SVGRepo_bgCarrier" stroke-width="0"/>
<g id="SVGRepo_tracerCarrier" stroke-linecap="round" stroke-linejoin="round"/>
<g id="SVGRepo_iconCarrier"> <path fill-rule="evenodd" clip-rule="evenodd" d="M13.4142 3.82843C12.6332 3.04738 11.3668 3.04738 10.5858 3.82843L9.91421 4.5L11.482 6.06774C11.6472 6.02356 11.8208 6 12 6C13.1046 6 14 6.89543 14 8C14 8.17916 13.9764 8.35282 13.9323 8.51804L15.982 10.5677C16.1472 10.5236 16.3208 10.5 16.5 10.5C17.6046 10.5 18.5 11.3954 18.5 12.5C18.5 13.6046 17.6046 14.5 16.5 14.5C15.3954 14.5 14.5 13.6046 14.5 12.5C14.5 12.3208 14.5236 12.1472 14.5677 11.982L13 10.4142V15.2676C13.5978 15.6134 14 16.2597 14 17C14 18.1046 13.1046 19 12 19C10.8954 19 10 18.1046 10 17C10 16.2597 10.4022 15.6134 11 15.2676V9.73244C10.4022 9.38663 10 8.74028 10 8C10 7.82084 10.0236 7.64718 10.0677 7.48196L8.5 5.91421L3.82843 10.5858C3.04738 11.3668 3.04738 12.6332 3.82843 13.4142L10.5858 20.1716C11.3668 20.9526 12.6332 20.9526 13.4142 20.1716L20.1716 13.4142C20.9526 12.6332 20.9526 11.3668 20.1716 10.5858L13.4142 3.82843ZM9.17157 2.41421C10.7337 0.852115 13.2663 0.852119 14.8284 2.41422L21.5858 9.17157C23.1479 10.7337 23.1479 13.2663 21.5858 14.8284L14.8284 21.5858C13.2663 23.1479 10.7337 23.1479 9.17157 21.5858L2.41421 14.8284C0.852115 13.2663 0.852119 10.7337 2.41422 9.17157L9.17157 2.41421Z" fill="#ffffff"/> </g>
</svg>

<svg xmlns="http://www.w3.org/2000/svg" width="800" height="800" fill="none" viewBox="0 0 24 24"><path fill="#fff" fill-rule="evenodd" d="M13.414 3.828a2 2 0 0 0-2.828 0l-.672.672 1.568 1.568a2.002 2.002 0 0 1 2.45 2.45l2.05 2.05q.248-.067.518-.068a2 2 0 1 1-1.932 1.482L13 10.414v4.854A2 2 0 0 1 12 19a2 2 0 0 1-1-3.732V9.732a2 2 0 0 1-.932-2.25L8.5 5.914l-4.672 4.672a2 2 0 0 0 0 2.828l6.758 6.758a2 2 0 0 0 2.828 0l6.758-6.758a2 2 0 0 0 0-2.828zM9.172 2.414a4 4 0 0 1 5.656 0l6.758 6.758a4 4 0 0 1 0 5.656l-6.758 6.758a4 4 0 0 1-5.656 0l-6.758-6.758a4 4 0 0 1 0-5.656z" clip-rule="evenodd"/></svg>
